packages/design-system/src/icons/assets/ic_arrow_up_black_30.svg

<svg width="30" height="30" viewBox="0 0 30 30" fill="none" xmlns="http://www.w3.org/2000/svg">
<path d="M8.375 18.3745C8.14583 18.1453 8.03125 17.8537 8.03125 17.4995C8.03125 17.1453 8.14583 16.8537 8.375 16.6245L14.125 10.8745C14.25 10.7495 14.3854 10.6608 14.5312 10.6083C14.6771 10.5566 14.8333 10.5308 15 10.5308C15.1667 10.5308 15.3283 10.562 15.485 10.6245C15.6408 10.687 15.7708 10.7703 15.875 10.8745L21.625 16.6245C21.8542 16.8537 21.9688 17.1453 21.9688 17.4995C21.9688 17.8537 21.8542 18.1453 21.625 18.3745C21.3958 18.6037 21.1042 18.7183 20.75 18.7183C20.3958 18.7183 20.1042 18.6037 19.875 18.3745L15 13.4995L10.125 18.3745C9.89583 18.6037 9.60417 18.7183 9.25 18.7183C8.89583 18.7183 8.60417 18.6037 8.375 18.3745Z" fill="#E9FFAC"/>
</svg>

<svg xmlns="http://www.w3.org/2000/svg" width="30" height="30" fill="none"><path fill="#E9FFAC" d="M8.375 18.375q-.344-.344-.344-.875 0-.532.344-.875l5.75-5.75q.187-.188.406-.267a1.4 1.4 0 0 1 .954.016q.234.094.39.25l5.75 5.75q.345.344.344.876 0 .53-.344.875-.344.343-.875.343t-.875-.343L15 13.499l-4.875 4.876q-.344.343-.875.343t-.875-.343"/></svg>
